X:1
T:James Gibb editions
T:Parce Domine - Obrecht
T:#
%%score [ 1 2 3 4 ]
L:1/8
Q:1/4=108
M:4/4
K:C
V:1 treble nm="Soprano" snm="S"
V:2 treble nm="Alto" snm="A"
V:3 treble-8 nm="Tenor" snm="T"
V:4 bass nm="Bass" snm="B"
V:1
"^Parce Domine""^Jacob Obrecht\n(1450-1505)" (A8 | G4) G4 | (c6 B2 | A4) A4 | G8 | z4 (G4- | %6
w: Par\-|* ce|Do\- *|* mi-|ne,|par\-|
 G2 A2 B2 c2- |[M:4/4] cA c4 BA) | ^G8- | !fermata!G8 | (G6 AB | c2 B4 A2- | A2 GF) E4 | D8 | %14
w: ||ce||po\- * *||* * * pu-|lo|
 z4 (B4- | B2 A2 A4- | A4 ^G4) | A8- | A8 | z4 (A4 | c6 B2 | A4 G4- | G4 ^F4 | (G6 FE | F2 E4 D2- | %25
w: tu\-|||o||qui\-|||* a|Pi\- * *||
 D2 C4) B,2 | A,8 | z4 A4 | G4 c4 | B2 A4 GF | E3 F G2) (A2- | AGFE D2) (A2- | A2 G4) ^F2 | G8 | %34
w: * * us|es|et|mi- se-|ri- cors * *|* * * mi\-|* * * * * se\-|* * ri-|cors|
 z4 G4 | (G3 A B2 c2 | d2 e4 dc | B2 c4) B2 | c8 | z4 (G4 | A3 B c2) A2- | A2 (d3 c BA | %42
w: Ex-|au\- * * *||* * di|nos|in|* * * ae\-|* ter\- * * *|
 ^G3 A B2) (c2 | B2) A4 ^G2 | !fermata!A8 |] %45
w: * * * num,|* Do- mi-|ne.|
V:2
 (A,8 | C6 B,2 | A,4) G,4 | (C4 D4 | E3 D CB, E2- | E2) (DC) B,4 | z4 (E4 |[M:4/4] C4 D4 | %8
w: Par\-||* ce|Do\- *||* mi\- * ne,|par\-|* ce|
 E6 (DC) | !fermata!B,8 | E6 D2 | E4 D2 C2- | C2 B,A,) C4 | (B,6 C2) | (D4 G,4 | A,8 | B,8 | %17
w: Do- mi\- *|ne,|po\- *||* * * pu-|lo *|tu\- *||o|
 A,4 A,4 | (C6 B,A, | C4) D4 | A,6 B,2) | C4 C4 | (D2 CB, A,4 | G,3 A, B,2 C2 | A,2 C4 B,2- | %25
w: qui- a|pi\- * *|* us|es *|qui- a|pi\- * * *|||
 B,2 A,4) G,2 | (A,6 B,2) | (C4 D4) | (B,2 E4 DC | DCB,A, B,4) | (C8- | D3 C D2 C2 | D2 B,2) A,4 | %33
w: * * us|es *|et *|mi\- * * *||se\-||* * ri-|
 (G,A,B,C D2 E2) | D2 (E4 DC | B,2 G,2 D4) | G,2 (G4 FE | D2 C2 D4) | (C2 DE F2) E2- | E2 D2 E4 | %40
w: cors * * * * *|Ex- au\- * *||di nos * *||ex * * * au\-|* di- nos|
 z2 (A,3 B, C2) | D2 (F3 E DC | B,2 C2) B,2 (E2- | E2 DC) B,4 | A,8 |] %45
w: in * *|ae- ter\- * * *|* * num, Do\-|* * * mi-|ne.|
V:3
 (e8- | e8 | c4 d4) | (e4 f4) | (e2 B2 e3 d) | (cB) e2 (e4- | e2 dc B2 G2 | %7
w: Par\-|||ce *|Do\- * * *|mi\- * ne, par\-||
[M:4/4][K:treble-8] A4 A4 | B6 (cd) | !fermata!e8 | c6 B2 | A2 E2 G2 A2) | F4 (CDEF | G6 A2) | %14
w: * ce|Do- mi\- *|ne,|po\- *||pu- lo * * *||
 (B6 e2 | d2 c2 d4) | e8 | (c6 d2 | e4) f4 | (f6 ed | c4) c4 | (F4 G4) | (A2 Bc) d4 | (B4 G2 A2 | %24
w: tu\- *||o|qui\- *|* a|pi\- * *|* us|es *|qui\- * * a|pi\- * *|
 F2 C4 G2- | G2) A2 E4 | (F4 c4) | (A4 F4) | G8 | z4 F4 | (G6 FE | D6) (F2- | F2 G2) D4 | G4 (B4- | %34
w: |* us es|pi\- *|us *|es|et|mi\- * *|* se\-|* * ri-|cors et|
 B4 e4) | d4 B4- | B2 c2 c4 | z8 | (e3 d c3 B) | A4 B4 | A2 c4 f2- | f2 (d3 e f2 | e4) e2 (B2- | %43
w: |mi- se\-|* ri- cors||Ex\- * * *|au- di|nos in ae-|* ter\- * *|* num, Do\-|
 B2 e4) e2 | (c4 !fermata!e4) |] %45
w: * * mi-|ne. *|
V:4
 z8 | z8 | z8 | z8 | E,8- | E,8 | E,8 |[M:4/4] F,4 F,4 | E,8 | !fermata!E,8 | z8 | z8 | z8 | %13
w: ||||Par\-||ce|Do- mi-|ne,|||||
 z4 G,4 | G,4 E,4 | F,8 | E,8 | z8 | z4 F,4- | F,4 F,4- | F,4 F,4- | F,4 E,4 | D,8 | z8 | z8 | z8 | %26
w: po-|pu- lo|tu-|o||qui\-|* a|* pi\-|* us|es||||
 z4 F,4- | F,4 D,4 | E,8 | D,8 | C,8 | z8 | z8 | z4 G,4 | G,4 E,4 | G,8 | z8 | G,4 G,4 | (A,6 G,2 | %39
w: et|* mi-|se-|ri-|cors|||Ex-|au- di|nos||in ae-|ter\- *|
 F,4) E,4 | (F,8 | D,8) | E,8- | E,8 | !fermata!A,,8 |] %45
w: * num.|Do\-||mi\-||ne.|

